F[BALLADE
CUT[Graf und Nonne (Die Nonne)
    Ich stand auf hohem Berge,]
CNR[schau ab ins tiefe Tal.]
REG[Mitteleuropa, Schweiz, Basel - Land]
SRC[8, S. 78
    1931 aufgezeichnet]
KEY[Q0155Y 08  F 4/4]
MEL[-5_  1_5_5335  3__3_
    -5_  1_1_466+1  +1__0_
    -5_  1_5_5335  3__3_
    5_  3_1_2_-7_  1__0_
    5_  3_1_2_-7_  1__0_ //] >>
FCT[Ballade, Standesunterschied, vergebliche Werbung, Liebe, Klage]
